-----BEGIN PGP PUBLIC KEY BLOCK-----

mDMEZcr/DBYJKwYBBAHaRw8BAQdAdX0rCq01uITvmEdX3w4pfX5xa54jMFpNj3IR
zmSmRWC0JFByaWNlIEhpbGxlciA8cHJpY2VAcHJpY2VoaWxsZXIuY29tPoiOBBMW
CgA2FiEEYPhcq8iHPSlzCYj9w/rd56hTS+sFAmieQ1ECGwMECwkIBwQVCgkIBRYC
AwEAAh4BAheAAAoJEMP63eeoU0vrTDUA/RIaWT6s/PQrKXwXXYDmujNWL7rImDjV
3dZqLhrBhqtYAQDXttxs4MPLLLq40ln7HGA23Xj/TrUb8MbzWxx04ieWA7QlUHJp
Y2UgSGlsbGVyIDxwcmljZUBwcmljZS1oaWxsZXIuY29tPoiOBBMWCgA2FiEEYPhc
q8iHPSlzCYj9w/rd56hTS+sFAmeIKh4CGwMECwkIBwQVCgkIBRYCAwEAAh4FAheA
AAoJEMP63eeoU0vrD3QA/A8Rc9VkFyrv8QPP2Voh1JcwZPEo0OVzr2Bth5AwU2q2
AQCoTLtQ7qDu/P4w1spKF2G0EwJD9NJp4yf9G2L5rKS+CbQqUHJpY2UgSGlsbGVy
IDxwcmljZUBvcmlvbi10ZWNobm9sb2dpZXMuaW8+iJ4EMBYKAEYWIQRg+FyryIc9
KXMJiP3D+t3nqFNL6wUCaftt6CgdIG9yaW9uLXRlY2hub2xvZ2llcy5pbyBpcyBi
ZWluZyByZXRpcmVkAAoJEMP63eeoU0vrbWEBALVfOlbBZxY7KkwveSo/SEwb1M9A
Ae22VCjCZK2RqaC2AQCtROh+pi4I/Q8z8lgvHOHjjYL91m4Yv0o94W1/UrbDCIiT
BBMWCgA7FiEEYPhcq8iHPSlzCYj9w/rd56hTS+sFAmXK/wwCGwMFCwkIBwICIgIG
FQoJCAsCBBYCAwECHgcCF4AACgkQw/rd56hTS+snRgEAooLYtyXZi6ySXPmoMBaW
0FY5wiYiX1imCnA/umfAyrwBAJlDO/9xlCwZV21BPRVYly3eNLnKTv2qqaopAR4W
HUMKuDgEZcr/DBIKKwYBBAGXVQEFAQEHQBvhAevEIynyuaZlksxoywLnbZIGHa0F
YmnXNJTxEERbAwEIB4h4BBgWCgAgFiEEYPhcq8iHPSlzCYj9w/rd56hTS+sFAmXK
/wwCGwwACgkQw/rd56hTS+tfoAEA1iFfQKlZIhzIZV5U8MP13h8KceafoinNF41R
MjxMKzwA/3E6duS7ySyzU3gjvvVRCdEkj5fm7San2qp8t4eYOzUKuDMEZcsBOxYJ
KwYBBAHaRw8BAQdA6RaxKe2DW58XjRwAtwgEDtZmGJT9/RydyqrSlyn4NliIeAQY
FgoAIBYhBGD4XKvIhz0pcwmI/cP63eeoU0vrBQJlywE7AhsgAAoJEMP63eeoU0vr
CQEA/Rslj4BVvMHf6eAT/LNh9ddym5sJRAnNygkveOqbbQfPAQDYYFhkWRMM+Y8U
qGwZdmz6Sk1etxGyz2mCUh6W3mPRA7gzBGXLG2EWCSsGAQQB2kcPAQEHQIrGsmL7
lFlQO7cEdJtSCFUPpJIQ5mG0NhKGsTpje6beiO8EGBYKACAWIQRg+FyryIc9KXMJ
iP3D+t3nqFNL6wUCZcsbYQIbAgCBCRDD+t3nqFNL63YgBBkWCgAdFiEEn6HDU3zn
uaIpY8XbKfhI3Ql/OewFAmXLG2EACgkQKfhI3Ql/OexgggD7Bnz/CWNGOPp+TdYf
0iLN4svcnvH+NnDudcVQ2q/N7MMA/304bxIbHzVQh9YmrgfADjQrv7aXlJQqENjJ
cQofONoBvlIA/1xYiSOwLec4RDV91BZdoIbXq9uicE0Dy5oDd2MA/3MGAP9iI6sf
qQ32hjX3ctBlrrF3evoyCOMfhJrjH3HnN+ZZAA==
=idks
-----END PGP PUBLIC KEY BLOCK-----
